images/6603728.svg

<?xml version="1.0" encoding="UTF-8"?>
<svg xmlns="http://www.w3.org/2000/svg" xmlns:xlink="http://www.w3.org/1999/xlink" width="300pt" height="300pt" viewBox="0 0 300 300" version="1.1">
<defs>
<g>
<symbol overflow="visible" id="glyph0-0">
<path style="stroke:none;" d="M 0.796875 2.828125 L 0.796875 -11.28125 L 8.796875 -11.28125 L 8.796875 2.828125 Z M 1.703125 1.9375 L 7.90625 1.9375 L 7.90625 -10.390625 L 1.703125 -10.390625 Z M 1.703125 1.9375 "/>
</symbol>
<symbol overflow="visible" id="glyph0-1">
<path style="stroke:none;" d="M 1.578125 -11.671875 L 3.703125 -11.671875 L 8.875 -1.90625 L 8.875 -11.671875 L 10.40625 -11.671875 L 10.40625 0 L 8.28125 0 L 3.109375 -9.765625 L 3.109375 0 L 1.578125 0 Z M 1.578125 -11.671875 "/>
</symbol>
<symbol overflow="visible" id="glyph0-2">
<path style="stroke:none;" d="M 1.578125 -11.671875 L 3.15625 -11.671875 L 3.15625 -6.890625 L 8.890625 -6.890625 L 8.890625 -11.671875 L 10.46875 -11.671875 L 10.46875 0 L 8.890625 0 L 8.890625 -5.5625 L 3.15625 -5.5625 L 3.15625 0 L 1.578125 0 Z M 1.578125 -11.671875 "/>
</symbol>
<symbol overflow="visible" id="glyph0-3">
<path style="stroke:none;" d="M 6.3125 -10.59375 C 5.164062 -10.59375 4.253906 -10.164062 3.578125 -9.3125 C 2.898438 -8.457031 2.5625 -7.296875 2.5625 -5.828125 C 2.5625 -4.359375 2.898438 -3.195312 3.578125 -2.34375 C 4.253906 -1.488281 5.164062 -1.0625 6.3125 -1.0625 C 7.457031 -1.0625 8.363281 -1.488281 9.03125 -2.34375 C 9.695312 -3.195312 10.03125 -4.359375 10.03125 -5.828125 C 10.03125 -7.296875 9.695312 -8.457031 9.03125 -9.3125 C 8.363281 -10.164062 7.457031 -10.59375 6.3125 -10.59375 Z M 6.3125 -11.875 C 7.945312 -11.875 9.253906 -11.328125 10.234375 -10.234375 C 11.210938 -9.140625 11.703125 -7.671875 11.703125 -5.828125 C 11.703125 -3.984375 11.210938 -2.507812 10.234375 -1.40625 C 9.253906 -0.3125 7.945312 0.234375 6.3125 0.234375 C 4.664062 0.234375 3.351562 -0.3125 2.375 -1.40625 C 1.394531 -2.507812 0.90625 -3.984375 0.90625 -5.828125 C 0.90625 -7.671875 1.394531 -9.140625 2.375 -10.234375 C 3.351562 -11.328125 4.664062 -11.875 6.3125 -11.875 Z M 6.3125 -11.875 "/>
</symbol>
<symbol overflow="visible" id="glyph0-4">
<path style="stroke:none;" d="M 1.578125 -11.671875 L 8.28125 -11.671875 L 8.28125 -10.34375 L 3.15625 -10.34375 L 3.15625 -6.90625 L 7.78125 -6.90625 L 7.78125 -5.578125 L 3.15625 -5.578125 L 3.15625 0 L 1.578125 0 Z M 1.578125 -11.671875 "/>
</symbol>
<symbol overflow="visible" id="glyph1-0">
<path style="stroke:none;" d="M 0.640625 2.296875 L 0.640625 -9.171875 L 7.140625 -9.171875 L 7.140625 2.296875 Z M 1.375 1.578125 L 6.421875 1.578125 L 6.421875 -8.4375 L 1.375 -8.4375 Z M 1.375 1.578125 "/>
</symbol>
<symbol overflow="visible" id="glyph1-1">
<path style="stroke:none;" d="M 5.984375 -8.15625 L 5.984375 -4.609375 L 9.515625 -4.609375 L 9.515625 -3.53125 L 5.984375 -3.53125 L 5.984375 0 L 4.90625 0 L 4.90625 -3.53125 L 1.375 -3.53125 L 1.375 -4.609375 L 4.90625 -4.609375 L 4.90625 -8.15625 Z M 5.984375 -8.15625 "/>
</symbol>
<symbol overflow="visible" id="glyph1-2">
<path style="stroke:none;" d="M 0.640625 -4.078125 L 4.0625 -4.078125 L 4.0625 -3.046875 L 0.640625 -3.046875 Z M 0.640625 -4.078125 "/>
</symbol>
</g>
</defs>
<g id="surface38353">
<rect x="0" y="0" width="300" height="300" style="fill:rgb(100%,100%,100%);fill-opacity:1;stroke:none;"/>
<path style="fill:none;stroke-width:1.2;stroke-linecap:butt;stroke-linejoin:miter;stroke:rgb(0%,0%,0%);stroke-opacity:1;stroke-miterlimit:10;" d="M 77.597656 213.960938 L 114.753906 204.882812 "/>
<path style="fill:none;stroke-width:1.2;stroke-linecap:butt;stroke-linejoin:miter;stroke:rgb(0%,0%,0%);stroke-opacity:1;stroke-miterlimit:10;" d="M 114.753906 204.882812 L 125.46875 168.164062 "/>
<path style="fill:none;stroke-width:1.2;stroke-linecap:butt;stroke-linejoin:miter;stroke:rgb(0%,0%,0%);stroke-opacity:1;stroke-miterlimit:10;" d="M 124.464844 203.730469 L 133.035156 174.355469 "/>
<path style="fill:none;stroke-width:1.2;stroke-linecap:butt;stroke-linejoin:miter;stroke:rgb(0%,0%,100%);stroke-opacity:1;stroke-miterlimit:10;" d="M 141.195312 232.519531 L 127.976562 218.699219 "/>
<path style="fill:none;stroke-width:1.2;stroke-linecap:butt;stroke-linejoin:miter;stroke:rgb(0%,0%,0%);stroke-opacity:1;stroke-miterlimit:10;" d="M 127.976562 218.699219 L 114.753906 204.882812 "/>
<path style="fill:none;stroke-width:1.2;stroke-linecap:butt;stroke-linejoin:miter;stroke:rgb(0%,0%,0%);stroke-opacity:1;stroke-miterlimit:10;" d="M 125.46875 168.164062 L 162.625 159.082031 "/>
<path style="fill:none;stroke-width:1.2;stroke-linecap:butt;stroke-linejoin:miter;stroke:rgb(0%,0%,0%);stroke-opacity:1;stroke-miterlimit:10;" d="M 125.46875 168.164062 L 99.023438 140.523438 "/>
<path style="fill:none;stroke-width:1.2;stroke-linecap:butt;stroke-linejoin:miter;stroke:rgb(0%,0%,0%);stroke-opacity:1;stroke-miterlimit:10;" d="M 162.625 159.082031 L 189.066406 186.71875 "/>
<path style="fill:none;stroke-width:1;stroke-linecap:butt;stroke-linejoin:miter;stroke:rgb(0%,0%,0%);stroke-opacity:1;stroke-miterlimit:10;" d="M 162.625 159.082031 L 162.625 159.082031 M 163.953125 156.390625 L 162.949219 156.097656 M 165.28125 153.699219 L 163.277344 153.117188 M 166.609375 151.011719 L 163.605469 150.136719 M 167.9375 148.320312 L 163.933594 147.152344 M 169.265625 145.632812 L 164.257812 144.171875 M 170.589844 142.941406 L 164.585938 141.1875 M 171.917969 140.25 L 164.914062 138.207031 M 173.246094 137.5625 L 165.238281 135.222656 M 174.574219 134.871094 L 165.566406 132.242188 M 175.902344 132.179688 L 165.894531 129.261719 M 177.230469 129.492188 L 166.222656 126.277344 M 178.558594 126.800781 L 166.546875 123.296875 M 179.816406 124.253906 L 166.859375 120.472656 "/>
<path style="fill:none;stroke-width:1.2;stroke-linecap:butt;stroke-linejoin:miter;stroke:rgb(0%,0%,0%);stroke-opacity:1;stroke-miterlimit:10;" d="M 189.066406 186.71875 L 178.351562 223.4375 "/>
<path style="fill:none;stroke-width:1.2;stroke-linecap:butt;stroke-linejoin:miter;stroke:rgb(0%,0%,0%);stroke-opacity:1;stroke-miterlimit:10;" d="M 179.355469 187.871094 L 170.785156 217.246094 "/>
<path style="fill:none;stroke-width:1.2;stroke-linecap:butt;stroke-linejoin:miter;stroke:rgb(0%,0%,0%);stroke-opacity:1;stroke-miterlimit:10;" d="M 189.066406 186.71875 L 207.644531 182.179688 "/>
<path style="fill:none;stroke-width:1.2;stroke-linecap:butt;stroke-linejoin:miter;stroke:rgb(0%,0%,100%);stroke-opacity:1;stroke-miterlimit:10;" d="M 207.644531 182.179688 L 226.222656 177.636719 "/>
<path style="fill:none;stroke-width:1.2;stroke-linecap:butt;stroke-linejoin:miter;stroke:rgb(0%,0%,0%);stroke-opacity:1;stroke-miterlimit:10;" d="M 178.351562 223.4375 L 159.773438 227.976562 "/>
<path style="fill:none;stroke-width:1.2;stroke-linecap:butt;stroke-linejoin:miter;stroke:rgb(0%,0%,100%);stroke-opacity:1;stroke-miterlimit:10;" d="M 159.773438 227.976562 L 141.195312 232.519531 "/>
<path style="fill:none;stroke-width:1.2;stroke-linecap:butt;stroke-linejoin:miter;stroke:rgb(0%,0%,0%);stroke-opacity:1;stroke-miterlimit:10;" d="M 178.351562 223.4375 L 204.796875 251.074219 "/>
<path style=" stroke:none;fill-rule:nonzero;fill:rgb(100%,100%,100%);fill-opacity:1;" d="M 129.195312 223.019531 L 153.195312 223.019531 L 153.195312 242.019531 L 129.195312 242.019531 Z M 129.195312 223.019531 "/>
<g style="fill:rgb(0%,0%,100%);fill-opacity:1;">
  <use xlink:href="#glyph0-1" x="129.195312" y="237.871094"/>
  <use xlink:href="#glyph0-2" x="141.164062" y="237.871094"/>
</g>
<path style="fill:none;stroke-width:1.2;stroke-linecap:butt;stroke-linejoin:miter;stroke:rgb(0%,0%,100%);stroke-opacity:1;stroke-miterlimit:10;" d="M 230.109375 179.90625 L 235.234375 171.128906 "/>
<path style="fill:none;stroke-width:1.2;stroke-linecap:butt;stroke-linejoin:miter;stroke:rgb(100%,0%,0%);stroke-opacity:1;stroke-miterlimit:10;" d="M 235.234375 171.128906 L 240.355469 162.351562 "/>
<path style="fill:none;stroke-width:1.2;stroke-linecap:butt;stroke-linejoin:miter;stroke:rgb(0%,0%,100%);stroke-opacity:1;stroke-miterlimit:10;" d="M 222.335938 175.371094 L 227.460938 166.589844 "/>
<path style="fill:none;stroke-width:1.2;stroke-linecap:butt;stroke-linejoin:miter;stroke:rgb(100%,0%,0%);stroke-opacity:1;stroke-miterlimit:10;" d="M 227.460938 166.589844 L 232.582031 157.8125 "/>
<path style="fill:none;stroke-width:1.2;stroke-linecap:butt;stroke-linejoin:miter;stroke:rgb(0%,0%,100%);stroke-opacity:1;stroke-miterlimit:10;" d="M 226.222656 177.636719 L 239.445312 191.457031 "/>
<path style="fill:none;stroke-width:1.2;stroke-linecap:butt;stroke-linejoin:miter;stroke:rgb(100%,0%,0%);stroke-opacity:1;stroke-miterlimit:10;" d="M 239.445312 191.457031 L 252.664062 205.277344 "/>
<path style=" stroke:none;fill-rule:nonzero;fill:rgb(100%,100%,100%);fill-opacity:1;" d="M 214.222656 166.636719 L 238.222656 166.636719 L 238.222656 188.636719 L 214.222656 188.636719 Z M 214.222656 166.636719 "/>
<g style="fill:rgb(0%,0%,100%);fill-opacity:1;">
  <use xlink:href="#glyph0-1" x="214.222656" y="183.895508"/>
</g>
<g style="fill:rgb(0%,0%,100%);fill-opacity:1;">
  <use xlink:href="#glyph1-1" x="226.191406" y="179.012695"/>
</g>
<path style=" stroke:none;fill-rule:nonzero;fill:rgb(100%,100%,100%);fill-opacity:1;" d="M 230.46875 150.582031 L 243.46875 150.582031 L 243.46875 169.582031 L 230.46875 169.582031 Z M 230.46875 150.582031 "/>
<g style="fill:rgb(100%,0%,0%);fill-opacity:1;">
  <use xlink:href="#glyph0-3" x="230.46875" y="165.433594"/>
</g>
<path style=" stroke:none;fill-rule:nonzero;fill:rgb(100%,100%,100%);fill-opacity:1;" d="M 243.664062 194.277344 L 261.664062 194.277344 L 261.664062 216.277344 L 243.664062 216.277344 Z M 243.664062 194.277344 "/>
<g style="fill:rgb(100%,0%,0%);fill-opacity:1;">
  <use xlink:href="#glyph0-3" x="243.664062" y="211.536133"/>
</g>
<g style="fill:rgb(100%,0%,0%);fill-opacity:1;">
  <use xlink:href="#glyph1-2" x="256.257812" y="206.65332"/>
</g>
<path style="fill:none;stroke-width:1.2;stroke-linecap:butt;stroke-linejoin:miter;stroke:rgb(0%,0%,0%);stroke-opacity:1;stroke-miterlimit:10;" d="M 173.335938 122.363281 L 146.894531 94.722656 "/>
<path style="fill:none;stroke-width:1.2;stroke-linecap:butt;stroke-linejoin:miter;stroke:rgb(0%,0%,0%);stroke-opacity:1;stroke-miterlimit:10;" d="M 177.195312 113.375 L 156.042969 91.265625 "/>
<path style="fill:none;stroke-width:1.2;stroke-linecap:butt;stroke-linejoin:miter;stroke:rgb(0%,0%,0%);stroke-opacity:1;stroke-miterlimit:10;" d="M 210.492188 113.28125 L 173.335938 122.363281 "/>
<path style="fill:none;stroke-width:1.2;stroke-linecap:butt;stroke-linejoin:miter;stroke:rgb(0%,0%,0%);stroke-opacity:1;stroke-miterlimit:10;" d="M 146.894531 94.722656 L 157.609375 58.003906 "/>
<path style="fill:none;stroke-width:1.2;stroke-linecap:butt;stroke-linejoin:miter;stroke:rgb(0%,0%,0%);stroke-opacity:1;stroke-miterlimit:10;" d="M 157.609375 58.003906 L 194.765625 48.925781 "/>
<path style="fill:none;stroke-width:1.2;stroke-linecap:butt;stroke-linejoin:miter;stroke:rgb(0%,0%,0%);stroke-opacity:1;stroke-miterlimit:10;" d="M 163.460938 65.839844 L 193.1875 58.574219 "/>
<path style="fill:none;stroke-width:1.2;stroke-linecap:butt;stroke-linejoin:miter;stroke:rgb(0%,0%,0%);stroke-opacity:1;stroke-miterlimit:10;" d="M 194.765625 48.925781 L 221.207031 76.5625 "/>
<path style="fill:none;stroke-width:1.2;stroke-linecap:butt;stroke-linejoin:miter;stroke:rgb(0%,0%,0%);stroke-opacity:1;stroke-miterlimit:10;" d="M 221.207031 76.5625 L 210.492188 113.28125 "/>
<path style="fill:none;stroke-width:1.2;stroke-linecap:butt;stroke-linejoin:miter;stroke:rgb(0%,0%,0%);stroke-opacity:1;stroke-miterlimit:10;" d="M 211.496094 77.714844 L 202.925781 107.089844 "/>
<path style="fill:none;stroke-width:1.2;stroke-linecap:butt;stroke-linejoin:miter;stroke:rgb(0%,0%,0%);stroke-opacity:1;stroke-miterlimit:10;" d="M 210.492188 113.28125 L 236.9375 140.917969 "/>
<path style="fill:none;stroke-width:1.2;stroke-linecap:butt;stroke-linejoin:miter;stroke:rgb(0%,0%,0%);stroke-opacity:1;stroke-miterlimit:10;" d="M 236.9375 140.917969 L 250.15625 154.738281 "/>
<path style="fill:none;stroke-width:1.2;stroke-linecap:butt;stroke-linejoin:miter;stroke:rgb(20%,80%,80%);stroke-opacity:1;stroke-miterlimit:10;" d="M 250.15625 154.738281 L 263.378906 168.554688 "/>
<path style="fill:none;stroke-width:1.2;stroke-linecap:butt;stroke-linejoin:miter;stroke:rgb(0%,0%,0%);stroke-opacity:1;stroke-miterlimit:10;" d="M 236.9375 140.917969 L 250.753906 127.699219 "/>
<path style="fill:none;stroke-width:1.2;stroke-linecap:butt;stroke-linejoin:miter;stroke:rgb(20%,80%,80%);stroke-opacity:1;stroke-miterlimit:10;" d="M 250.753906 127.699219 L 264.574219 114.476562 "/>
<path style="fill:none;stroke-width:1.2;stroke-linecap:butt;stroke-linejoin:miter;stroke:rgb(0%,0%,0%);stroke-opacity:1;stroke-miterlimit:10;" d="M 236.9375 140.917969 L 226.726562 157.089844 "/>
<path style="fill:none;stroke-width:1.2;stroke-linecap:butt;stroke-linejoin:miter;stroke:rgb(20%,80%,80%);stroke-opacity:1;stroke-miterlimit:10;" d="M 226.726562 157.089844 L 216.519531 173.261719 "/>
<path style=" stroke:none;fill-rule:nonzero;fill:rgb(100%,100%,100%);fill-opacity:1;" d="M 258.378906 159.054688 L 268.378906 159.054688 L 268.378906 178.054688 L 258.378906 178.054688 Z M 258.378906 159.054688 "/>
<g style="fill:rgb(20%,80%,80%);fill-opacity:1;">
  <use xlink:href="#glyph0-4" x="258.378906" y="173.90625"/>
</g>
<path style=" stroke:none;fill-rule:nonzero;fill:rgb(100%,100%,100%);fill-opacity:1;" d="M 259.574219 104.976562 L 269.574219 104.976562 L 269.574219 123.976562 L 259.574219 123.976562 Z M 259.574219 104.976562 "/>
<g style="fill:rgb(20%,80%,80%);fill-opacity:1;">
  <use xlink:href="#glyph0-4" x="259.574219" y="119.828125"/>
</g>
<path style=" stroke:none;fill-rule:nonzero;fill:rgb(100%,100%,100%);fill-opacity:1;" d="M 206.519531 163.761719 L 216.519531 163.761719 L 216.519531 182.761719 L 206.519531 182.761719 Z M 206.519531 163.761719 "/>
<g style="fill:rgb(20%,80%,80%);fill-opacity:1;">
  <use xlink:href="#glyph0-4" x="206.519531" y="178.613281"/>
</g>
<path style="fill:none;stroke-width:1.2;stroke-linecap:butt;stroke-linejoin:miter;stroke:rgb(0%,0%,0%);stroke-opacity:1;stroke-miterlimit:10;" d="M 103.34375 141.785156 L 108.703125 123.425781 "/>
<path style="fill:none;stroke-width:1.2;stroke-linecap:butt;stroke-linejoin:miter;stroke:rgb(100%,0%,0%);stroke-opacity:1;stroke-miterlimit:10;" d="M 108.703125 123.425781 L 114.058594 105.066406 "/>
<path style="fill:none;stroke-width:1.2;stroke-linecap:butt;stroke-linejoin:miter;stroke:rgb(0%,0%,0%);stroke-opacity:1;stroke-miterlimit:10;" d="M 94.703125 139.265625 L 100.0625 120.90625 "/>
<path style="fill:none;stroke-width:1.2;stroke-linecap:butt;stroke-linejoin:miter;stroke:rgb(100%,0%,0%);stroke-opacity:1;stroke-miterlimit:10;" d="M 100.0625 120.90625 L 105.417969 102.546875 "/>
<path style="fill:none;stroke-width:1.2;stroke-linecap:butt;stroke-linejoin:miter;stroke:rgb(0%,0%,0%);stroke-opacity:1;stroke-miterlimit:10;" d="M 99.023438 140.523438 L 80.445312 145.066406 "/>
<path style="fill:none;stroke-width:1.2;stroke-linecap:butt;stroke-linejoin:miter;stroke:rgb(100%,0%,0%);stroke-opacity:1;stroke-miterlimit:10;" d="M 80.445312 145.066406 L 61.867188 149.605469 "/>
<path style=" stroke:none;fill-rule:nonzero;fill:rgb(100%,100%,100%);fill-opacity:1;" d="M 103.738281 94.304688 L 116.738281 94.304688 L 116.738281 113.304688 L 103.738281 113.304688 Z M 103.738281 94.304688 "/>
<g style="fill:rgb(100%,0%,0%);fill-opacity:1;">
  <use xlink:href="#glyph0-3" x="103.738281" y="109.15625"/>
</g>
<path style="fill:none;stroke-width:1.2;stroke-linecap:butt;stroke-linejoin:miter;stroke:rgb(100%,0%,0%);stroke-opacity:1;stroke-miterlimit:10;" d="M 61.867188 149.605469 L 48.648438 135.785156 "/>
<path style="fill:none;stroke-width:1.2;stroke-linecap:butt;stroke-linejoin:miter;stroke:rgb(0%,0%,0%);stroke-opacity:1;stroke-miterlimit:10;" d="M 48.648438 135.785156 L 35.425781 121.96875 "/>
<path style=" stroke:none;fill-rule:nonzero;fill:rgb(100%,100%,100%);fill-opacity:1;" d="M 55.867188 140.105469 L 68.867188 140.105469 L 68.867188 159.105469 L 55.867188 159.105469 Z M 55.867188 140.105469 "/>
<g style="fill:rgb(100%,0%,0%);fill-opacity:1;">
  <use xlink:href="#glyph0-3" x="55.867188" y="154.957031"/>
</g>
</g>
</svg>

<svg xmlns="http://www.w3.org/2000/svg" xmlns:xlink="http://www.w3.org/1999/xlink" width="300pt" height="300pt" viewBox="0 0 300 300"><defs><symbol overflow="visible"><path d="M.797 2.828v-14.11h8V2.83zm.906-.89h6.203v-12.33H1.703zm0 0"/></symbol><symbol overflow="visible" id="a"><path d="M1.578-11.672h2.125l5.172 9.766v-9.766h1.53V0H8.282L3.11-9.766V0H1.577zm0 0"/></symbol><symbol overflow="visible" id="b"><path d="M1.578-11.672h1.578v4.78H8.89v-4.78h1.58V0H8.89v-5.563H3.157V0H1.578zm0 0"/></symbol><symbol overflow="visible" id="d"><path d="M6.313-10.594c-1.15 0-2.06.43-2.735 1.28-.68.857-1.015 2.017-1.015 3.486 0 1.47.335 2.633 1.015 3.484.676.856 1.586 1.28 2.735 1.28 1.144.002 2.05-.424 2.718-1.28.665-.85 1-2.015 1-3.484 0-1.47-.335-2.63-1-3.484-.667-.852-1.573-1.282-2.717-1.282zm0-1.28c1.632 0 2.94.546 3.92 1.64.978 1.093 1.47 2.562 1.47 4.406 0 1.844-.492 3.32-1.47 4.422-.98 1.093-2.288 1.64-3.92 1.64-1.65 0-2.96-.546-3.938-1.64-.98-1.102-1.47-2.578-1.47-4.422 0-1.844.49-3.313 1.47-4.406.977-1.094 2.29-1.64 3.938-1.64zm0 0"/></symbol><symbol overflow="visible" id="f"><path d="M1.578-11.672H8.28v1.328H3.157v3.438H7.78v1.328H3.157V0H1.578zm0 0"/></symbol><symbol overflow="visible"><path d="M.64 2.297v-11.47h6.5v11.47zm.735-.72h5.047V-8.436H1.375zm0 0"/></symbol><symbol overflow="visible" id="c"><path d="M5.984-8.156v3.547h3.532v1.08H5.984V0H4.906v-3.53h-3.53v-1.08h3.53v-3.546zm0 0"/></symbol><symbol overflow="visible" id="e"><path d="M.64-4.078h3.422v1.03H.643zm0 0"/></symbol></defs><g><path fill="#fff" d="M0 0h300v300H0z"/><path d="M77.598 213.96l37.156-9.077M114.754 204.883l10.715-36.72M124.465 203.73l8.57-29.375" stroke-width="1.2" stroke="#000" stroke-miterlimit="10" fill="none"/><path d="M141.195 232.52l-13.218-13.82" stroke-width="1.2" stroke="#00f" stroke-miterlimit="10" fill="none"/><path d="M127.977 218.7l-13.223-13.817M125.47 168.164l37.155-9.082M125.47 168.164l-26.447-27.64M162.625 159.082l26.44 27.637" stroke-width="1.2" stroke="#000" stroke-miterlimit="10" fill="none"/><path d="M162.625 159.082m1.328-2.69l-1.004-.294m2.33-2.4l-2.003-.58m3.332-2.106l-3.005-.875m4.333-1.817l-4.004-1.168m5.332-1.52l-5.008-1.46m6.332-1.23l-6.004-1.755m7.332-.937l-7.004-2.043m8.332-.644l-8.008-2.34m9.336-.352l-9.008-2.628m10.336-.062l-10.007-2.918m11.335.23l-11.007-3.215m12.336.524l-12.013-3.503m13.27.957l-12.958-3.78" stroke="#000" stroke-miterlimit="10" fill="none"/><path d="M189.066 186.72l-10.714 36.718M179.355 187.87l-8.57 29.376M189.066 186.72l18.58-4.54" stroke-width="1.2" stroke="#000" stroke-miterlimit="10" fill="none"/><path d="M207.645 182.18l18.578-4.543" stroke-width="1.2" stroke="#00f" stroke-miterlimit="10" fill="none"/><path d="M178.352 223.438l-18.58 4.54" stroke-width="1.2" stroke="#000" stroke-miterlimit="10" fill="none"/><path d="M159.773 227.977l-18.578 4.543" stroke-width="1.2" stroke="#00f" stroke-miterlimit="10" fill="none"/><path d="M178.352 223.438l26.445 27.636" stroke-width="1.2" stroke="#000" stroke-miterlimit="10" fill="none"/><path d="M129.195 223.02h24v19h-24zm0 0" fill="#fff"/><g fill="#00f"><use xlink:href="#a" x="129.195" y="237.871"/><use xlink:href="#b" x="141.164" y="237.871"/></g><path d="M230.11 179.906l5.124-8.777" stroke-width="1.2" stroke="#00f" stroke-miterlimit="10" fill="none"/><path d="M235.234 171.13l5.12-8.778" stroke-width="1.2" stroke="#f00" stroke-miterlimit="10" fill="none"/><path d="M222.336 175.37l5.125-8.78" stroke-width="1.2" stroke="#00f" stroke-miterlimit="10" fill="none"/><path d="M227.46 166.59l5.122-8.778" stroke-width="1.2" stroke="#f00" stroke-miterlimit="10" fill="none"/><path d="M226.223 177.637l13.222 13.82" stroke-width="1.2" stroke="#00f" stroke-miterlimit="10" fill="none"/><path d="M239.445 191.457l13.22 13.82" stroke-width="1.2" stroke="#f00" stroke-miterlimit="10" fill="none"/><path d="M214.223 166.637h24v22h-24zm0 0" fill="#fff"/><use xlink:href="#a" x="214.223" y="183.896" fill="#00f"/><use xlink:href="#c" x="226.191" y="179.013" fill="#00f"/><path d="M230.47 150.582h13v19h-13zm0 0" fill="#fff"/><use xlink:href="#d" x="230.469" y="165.434" fill="#f00"/><path d="M243.664 194.277h18v22h-18zm0 0" fill="#fff"/><use xlink:href="#d" x="243.664" y="211.536" fill="#f00"/><use xlink:href="#e" x="256.258" y="206.653" fill="#f00"/><path d="M173.336 122.363l-26.44-27.64M177.195 113.375l-21.152-22.11M210.492 113.28l-37.156 9.083M146.895 94.723l10.714-36.72M157.61 58.004l37.156-9.078M163.46 65.84l29.727-7.266M194.766 48.926l26.44 27.636M221.207 76.563l-10.715 36.718M211.496 77.715l-8.57 29.375M210.492 113.28l26.446 27.638M236.938 140.918l13.218 13.82" stroke-width="1.2" stroke="#000" stroke-miterlimit="10" fill="none"/><path d="M250.156 154.738l13.223 13.817" stroke-width="1.2" stroke="#3cc" stroke-miterlimit="10" fill="none"/><path d="M236.938 140.918l13.816-13.22" stroke-width="1.2" stroke="#000" stroke-miterlimit="10" fill="none"/><path d="M250.754 127.7l13.82-13.223" stroke-width="1.2" stroke="#3cc" stroke-miterlimit="10" fill="none"/><path d="M236.938 140.918l-10.21 16.172" stroke-width="1.2" stroke="#000" stroke-miterlimit="10" fill="none"/><path d="M226.727 157.09l-10.207 16.172" stroke-width="1.2" stroke="#3cc" stroke-miterlimit="10" fill="none"/><path d="M258.38 159.055h10v19h-10zm0 0" fill="#fff"/><use xlink:href="#f" x="258.379" y="173.906" fill="#3cc"/><path d="M259.574 104.977h10v19h-10zm0 0" fill="#fff"/><use xlink:href="#f" x="259.574" y="119.828" fill="#3cc"/><path d="M206.52 163.762h10v19h-10zm0 0" fill="#fff"/><use xlink:href="#f" x="206.52" y="178.613" fill="#3cc"/><path d="M103.344 141.785l5.36-18.36" stroke-width="1.2" stroke="#000" stroke-miterlimit="10" fill="none"/><path d="M108.703 123.426l5.356-18.36" stroke-width="1.2" stroke="#f00" stroke-miterlimit="10" fill="none"/><path d="M94.703 139.266l5.36-18.36" stroke-width="1.2" stroke="#000" stroke-miterlimit="10" fill="none"/><path d="M100.063 120.906l5.355-18.36" stroke-width="1.2" stroke="#f00" stroke-miterlimit="10" fill="none"/><path d="M99.023 140.523l-18.578 4.543" stroke-width="1.2" stroke="#000" stroke-miterlimit="10" fill="none"/><path d="M80.445 145.066l-18.578 4.54" stroke-width="1.2" stroke="#f00" stroke-miterlimit="10" fill="none"/><path d="M103.738 94.305h13v19h-13zm0 0" fill="#fff"/><use xlink:href="#d" x="103.738" y="109.156" fill="#f00"/><path d="M61.867 149.605l-13.22-13.82" stroke-width="1.2" stroke="#f00" stroke-miterlimit="10" fill="none"/><path d="M48.648 135.785L35.426 121.97" stroke-width="1.2" stroke="#000" stroke-miterlimit="10" fill="none"/><path d="M55.867 140.105h13v19h-13zm0 0" fill="#fff"/><use xlink:href="#d" x="55.867" y="154.957" fill="#f00"/></g></svg>
